resources/assets/icons/square-play.svg

<svg width="20" height="20" viewBox="0 0 20 20" fill="none" xmlns="http://www.w3.org/2000/svg">
<path fill-rule="evenodd" clip-rule="evenodd" d="M0.999023 2.9989C0.999023 1.89433 1.89445 0.998901 2.99902 0.998901H16.999C18.1036 0.998901 18.999 1.89433 18.999 2.9989V16.9989C18.999 18.1035 18.1036 18.9989 16.999 18.9989H2.99902C1.89445 18.9989 0.999023 18.1035 0.999023 16.9989V2.9989Z" stroke="#637282" stroke-width="2" stroke-linecap="round" stroke-linejoin="round"/>
<path fill-rule="evenodd" clip-rule="evenodd" d="M8.59001 12.9274C8.37774 13.0332 8.1258 13.0217 7.92409 12.8969C7.72238 12.7721 7.59962 12.5518 7.59961 12.3146V7.68416C7.59962 7.44696 7.72238 7.22666 7.92409 7.10185C8.1258 6.97704 8.37774 6.96551 8.59001 7.07136L13.2212 9.38736C13.4532 9.50314 13.5997 9.74011 13.5997 9.99936C13.5997 10.2586 13.4532 10.4956 13.2212 10.6114L8.59001 12.9274Z" stroke="#637282" stroke-width="2" stroke-linecap="round" stroke-linejoin="round"/>
</svg>

<svg width="20" height="20" fill="none" xmlns="http://www.w3.org/2000/svg"><path clip-rule="evenodd" d="M.999 2.999a2 2 0 0 1 2-2h14a2 2 0 0 1 2 2v14a2 2 0 0 1-2 2h-14a2 2 0 0 1-2-2v-14Z" stroke="#637282" stroke-width="2" stroke-linecap="round" stroke-linejoin="round"/><path clip-rule="evenodd" d="M8.59 12.927a.685.685 0 0 1-.99-.612v-4.63a.685.685 0 0 1 .99-.614l4.631 2.316a.684.684 0 0 1 0 1.224L8.59 12.927Z" stroke="#637282" stroke-width="2" stroke-linecap="round" stroke-linejoin="round"/></svg>
